X: 3022
M: C|
L: 1/8
K: Bb
b2 |\
f2g2 f3e | d2e2 c2(BA) |\
d2gf edcB | A3G G2f2 |\
b3a g2(fe) | def2 A2(GF) |\
e3e e2dc | c3B HB2 |]


